X: 1
T: Alta's
M: 4/4
L: 1/8
R: reel
K: Amaj
B|:ceAE F2 EF|A~F3 ~E3 B|ceAE FGAB|cFFE FGAB|
ceAE F2 EF|A~F3 E3 e|fecA BcAF|1EecB A3 B:|2EecB A3 c||
|:B2 Ac BAAc|BABc ecBA|B2 Ac BABc|ecBA F3 c|
B2 Ac BAAc|BABc e3 e|fecA BcAF|1EecB A3 c:|2EecB A3 B||
